logo/jsdelivr.svg

<?xml version="1.0" encoding="UTF-8" standalone="no"?>
<svg width="256px" height="273px" viewBox="0 0 256 273" version="1.1" xmlns="http://www.w3.org/2000/svg" xmlns:xlink="http://www.w3.org/1999/xlink" preserveAspectRatio="xMidYMid">
	<g>
		<path d="M126.517,0 L256,45.398 L236.333,212.796 L126.517,272.817 L17.706,212.715 L0,45.422 L126.517,0" fill="#E14337"></path>
		<path d="M174.235,140.62 C174.235,144.743 170.892,148.086 166.768,148.086 C162.644,148.086 159.301,144.743 159.301,140.62 C159.301,136.496 162.644,133.153 166.768,133.153 C170.892,133.153 174.235,136.496 174.235,140.62 Z M129.68,93.85 C129.68,97.973 126.337,101.316 122.214,101.316 C118.09,101.316 114.747,97.973 114.747,93.85 C114.747,89.726 118.09,86.383 122.214,86.383 C126.337,86.383 129.68,89.726 129.68,93.85 Z M127.711,81.211 C136.815,72.209 146.855,64.452 157.09,58.741 C147.783,54.752 137.535,52.536 126.767,52.536 C121.728,52.536 116.806,53.036 112.036,53.96 C112.899,61.568 115.736,70.674 120.234,80.223 C120.882,80.13 121.54,80.065 122.214,80.065 C124.169,80.065 126.026,80.477 127.711,81.211 Z M88.907,151.76 C89.618,146.104 90.951,140.299 92.956,134.378 C96.755,123.164 102.904,111.824 110.574,101.213 C109.223,99.081 108.429,96.56 108.429,93.85 C108.429,90.128 109.91,86.757 112.307,84.277 C107.619,74.396 104.505,64.726 103.371,56.164 C72.26,66.071 49.72,95.19 49.72,129.583 C49.72,131.837 49.838,134.062 50.027,136.267 C59.569,147.831 70.361,154.375 81.032,157.767 C82.805,154.894 85.594,152.723 88.907,151.76 Z M131.924,115.168 C129.792,112.545 127.766,109.859 125.828,107.139 C124.674,107.453 123.466,107.634 122.214,107.634 C120.525,107.634 118.914,107.316 117.418,106.76 C110.438,116.52 104.837,126.926 101.349,137.221 C99.862,141.612 98.54,146.694 97.794,152.167 C101.632,153.677 104.631,156.848 105.891,160.804 C108.723,160.665 111.447,160.383 114.026,160.003 C127.727,157.986 141.398,152.634 153.711,145.015 C153.246,143.633 152.983,142.158 152.983,140.619 C152.983,139.325 153.175,138.077 153.508,136.889 C146.408,131.151 139.13,124.03 131.924,115.168 Z M133.169,102.192 C140.211,112.083 148.774,121.592 158.533,129.584 C160.832,127.865 163.676,126.835 166.768,126.835 C169.497,126.835 172.034,127.638 174.174,129.006 C183.987,119.398 191.79,108.273 196.389,96.56 C189.913,82.932 179.561,71.503 166.749,63.71 C155.474,69.063 144.259,77.271 134.234,87.113 C135.353,89.106 135.998,91.401 135.998,93.85 C135.998,96.989 134.937,99.874 133.169,102.192 Z M180.239,143.53 C186.836,146.673 193.762,149.03 200.961,150.348 C202.806,143.739 203.815,136.781 203.815,129.583 C203.815,122.162 202.744,114.994 200.786,108.203 C195.577,118.16 188.322,127.552 179.694,135.867 C180.24,137.35 180.553,138.946 180.553,140.619 C180.553,141.619 180.441,142.591 180.239,143.53 Z M79.041,166.35 C69.529,163.404 60.781,158.568 53.026,151.937 C60.552,176.797 80.302,196.33 105.285,203.573 C101.823,200.171 99.035,196.712 96.91,193.164 C94.16,188.574 92.078,183.7 90.644,178.595 C84.477,177.644 79.656,172.622 79.041,166.35 Z M159.04,152.034 C145.504,160.558 130.424,166.546 115.316,168.77 C112.068,169.248 108.863,169.546 105.706,169.677 C104.564,172.83 102.317,175.451 99.418,177.055 C100.579,180.932 102.234,184.808 104.512,188.61 C108.149,194.681 114.267,200.588 123.08,206.537 C124.302,206.595 125.531,206.631 126.767,206.631 C158.979,206.631 186.56,186.856 198.069,158.79 C191.79,157.51 184.141,155.199 175.701,151.107 C173.295,153.159 170.179,154.404 166.768,154.404 C163.904,154.404 161.244,153.53 159.04,152.034 Z M100.224,164.989 C100.224,169.113 96.881,172.456 92.757,172.456 C88.633,172.456 85.29,169.113 85.29,164.989 C85.29,160.865 88.633,157.522 92.757,157.522 C96.881,157.522 100.224,160.865 100.224,164.989 Z" fill="#F9BD3E"></path>
		<path d="M256,45.398 L126.517,0 L126.517,272.817 L236.333,212.796 L256,45.398 Z" fill-opacity="0.3" fill="#440401"></path>
	</g>
</svg>

<svg viewBox="0 0 256 273" xmlns="http://www.w3.org/2000/svg"><path fill="#E14337" d="M126.51 0l129.483 45.398 -19.667 167.398 -109.82 60.02L17.69 212.7 -.02 45.4 126.495-.02"/><path fill="#F9BD3E" d="M174.235 140.62c0 4.12-3.35 7.46-7.47 7.46 -4.13 0-7.47-3.35-7.47-7.47 0-4.13 3.34-7.47 7.46-7.47s7.46 3.34 7.46 7.46Zm-44.56-46.77c0 4.12-3.35 7.46-7.47 7.46 -4.13 0-7.47-3.35-7.47-7.47 0-4.13 3.34-7.47 7.46-7.47s7.46 3.34 7.46 7.46Zm-1.97-12.64c9.1-9.01 19.14-16.76 29.37-22.47 -9.31-3.99-19.56-6.21-30.33-6.21 -5.04 0-9.97.5-14.74 1.42 .86 7.6 3.7 16.71 8.19 26.26 .64-.1 1.3-.16 1.98-.16 1.95 0 3.81.41 5.49 1.14Zm-38.81 70.54c.71-5.66 2.04-11.47 4.04-17.39 3.79-11.22 9.94-22.56 17.61-33.17 -1.36-2.14-2.15-4.66-2.15-7.37 0-3.73 1.48-7.1 3.87-9.58 -4.69-9.881-7.81-19.56-8.94-28.113 -31.12 9.9-53.66 39.02-53.66 73.41 0 2.25.11 4.47.3 6.68 9.54 11.56 20.33 18.1 31 21.5 1.77-2.88 4.56-5.05 7.875-6.01Zm43.01-36.6c-2.14-2.63-4.16-5.31-6.1-8.03 -1.16.31-2.37.49-3.62.49 -1.69 0-3.3-.32-4.8-.88 -6.98 9.76-12.59 20.16-16.07 30.46 -1.49 4.39-2.81 9.47-3.56 14.94 3.83 1.51 6.83 4.68 8.09 8.637 2.83-.14 5.55-.43 8.13-.81 13.7-2.02 27.37-7.37 39.68-14.988 -.47-1.39-.73-2.86-.73-4.4 0-1.3.19-2.55.52-3.73 -7.1-5.74-14.38-12.86-21.59-21.73Zm1.24-12.98c7.04 9.89 15.6 19.4 25.36 27.39 2.29-1.72 5.14-2.75 8.23-2.75 2.72 0 5.26.8 7.4 2.17 9.81-9.61 17.61-20.74 22.21-32.45 -6.48-13.628-16.83-25.06-29.64-32.85 -11.28 5.35-22.49 13.561-32.52 23.403 1.11 1.99 1.76 4.28 1.76 6.73 0 3.13-1.07 6.02-2.83 8.34Zm47.07 41.33c6.59 3.14 13.52 5.5 20.72 6.81 1.84-6.61 2.85-13.57 2.85-20.77 0-7.43-1.08-14.59-3.03-21.38 -5.21 9.95-12.47 19.34-21.1 27.664 .54 1.48.85 3.07.85 4.75 0 1-.12 1.97-.32 2.91Zm-101.2 22.82c-9.52-2.95-18.26-7.79-26.02-14.42 7.52 24.86 27.27 44.39 52.25 51.63 -3.47-3.41-6.25-6.87-8.38-10.41 -2.75-4.59-4.84-9.47-6.27-14.57 -6.17-.96-10.988-5.98-11.61-12.25ZM159.014 152c-13.54 8.52-28.62 14.512-43.73 16.73 -3.25.47-6.46.77-9.61.9 -1.15 3.15-3.39 5.77-6.29 7.37 1.16 3.87 2.81 7.75 5.09 11.55 3.63 6.07 9.75 11.97 18.56 17.92 1.22.05 2.45.09 3.68.09 32.21 0 59.79-19.78 71.302-47.85 -6.28-1.28-13.93-3.6-22.37-7.69 -2.41 2.05-5.53 3.29-8.94 3.29 -2.87 0-5.53-.88-7.73-2.37Zm-58.816 12.95c0 4.12-3.35 7.46-7.47 7.46 -4.13 0-7.47-3.35-7.47-7.47 0-4.13 3.34-7.47 7.46-7.47s7.46 3.34 7.46 7.46Z"/><path fill="#440401" fill-opacity=".3" d="M256 45.398L126.51 0v272.817l109.816-60.03 19.66-167.398Z"/></svg>
